大富翁/school.svg

<svg height="30.0px" stroke-miterlimit="10" style="fill-rule:nonzero;clip-rule:evenodd;stroke-linecap:round;stroke-linejoin:round;" version="1.1" viewBox="0 0 30 30" width="30.0px" xml:space="preserve" xmlns="http://www.w3.org/2000/svg" xmlns:xlink="http://www.w3.org/1999/xlink">
<defs/>
<path d="M0 15L30 15L30 29.2857L0 29.2857L0 15Z" fill="#e89419" fill-rule="nonzero" opacity="1" stroke="none"/>
<path d="M20 1.42857L20 4.28571L18.4286 4.28571C16.7143 4.28571 17.5714 3.57143 15 3.57143L15 0.714286C17.5714 0.714286 16.7143 1.42857 18.4286 1.42857L20 1.42857Z" fill="#c62828" fill-rule="nonzero" opacity="1" stroke="none"/>
<path d="M2.14286 17.8571L4.28571 17.8571L4.28571 21.4286L2.14286 21.4286L2.14286 17.8571ZM5.71429 17.8571L7.85714 17.8571L7.85714 21.4286L5.71429 21.4286L5.71429 17.8571ZM5.71429 23.5714L7.85714 23.5714L7.85714 27.1429L5.71429 27.1429L5.71429 23.5714ZM2.14286 23.5714L4.28571 23.5714L4.28571 27.1429L2.14286 27.1429L2.14286 23.5714ZM22.1429 17.8571L24.2857 17.8571L24.2857 21.4286L22.1429 21.4286L22.1429 17.8571ZM25.7143 17.8571L27.8571 17.8571L27.8571 21.4286L25.7143 21.4286L25.7143 17.8571ZM25.7143 23.5714L27.8571 23.5714L27.8571 27.1429L25.7143 27.1429L25.7143 23.5714ZM22.1429 23.5714L24.2857 23.5714L24.2857 27.1429L22.1429 27.1429L22.1429 23.5714Z" fill="#805a26" fill-rule="nonzero" opacity="1" stroke="none"/>
<path d="M0 11.4286L30 11.4286L30 15.7143L0 15.7143L0 11.4286Z" fill="#00796b" fill-rule="nonzero" opacity="1" stroke="none"/>
<path d="M15 6.07143L10 11.0714L10 29.2857L20 29.2857L20 11.0714L15 6.07143Z" fill="#ffb74d" fill-rule="nonzero" opacity="1" stroke="none"/>
<path d="M15 12.8571C13.0276 12.8571 11.4286 14.4561 11.4286 16.4286C11.4286 18.401 13.0276 20 15 20C16.9724 20 18.5714 18.401 18.5714 16.4286C18.5714 14.4561 16.9724 12.8571 15 12.8571Z" fill="#fafafa" fill-rule="nonzero" opacity="1" stroke="none"/>
<path d="M16.4286 17.1429L15 17.1429C14.5714 17.1429 14.2857 16.8571 14.2857 16.4286L14.2857 15C14.2857 14.5714 14.5714 14.2857 15 14.2857C15.4286 14.2857 15.7143 14.5714 15.7143 15L15.7143 15.7143L16.4286 15.7143C16.8571 15.7143 17.1429 16 17.1429 16.4286C17.1429 16.8571 16.8571 17.1429 16.4286 17.1429Z" fill="#795548" fill-rule="nonzero" opacity="1" stroke="none"/>
<path d="M15 5L8.57143 11.4286L8.57143 13.5L15 7.07143L21.4286 13.5L21.4286 11.4286L15 5Z" fill="#4db6ac" fill-rule="nonzero" opacity="1" stroke="none"/>
<path d="M15 22.1429C13.7857 22.1429 12.8571 23.0714 12.8571 24.2857C12.8571 25.5 12.8571 29.2857 12.8571 29.2857L17.1429 29.2857C17.1429 29.2857 17.1429 25.5 17.1429 24.2857C17.1429 23.0714 16.2143 22.1429 15 22.1429Z" fill="#805a26" fill-rule="nonzero" opacity="1" stroke="none"/>
</svg>

<svg height="30" viewBox="0 0 30 30" stroke-miterlimit="10" width="30" xmlns="http://www.w3.org/2000/svg" clip-rule="evenodd" stroke-linecap="round" stroke-linejoin="round"><path d="M0 15h30v14.286H0V15z" fill="#e89419"/><path d="M20 1.429v2.857h-1.571c-1.715 0-.858-.715-3.429-.715V.714c2.571 0 1.714.715 3.429.715H20z" fill="#c62828"/><path d="M2.143 17.857h2.143v3.572H2.143v-3.572zm3.571 0h2.143v3.572H5.714v-3.572zm0 5.714h2.143v3.572H5.714V23.57zm-3.571 0h2.143v3.572H2.143V23.57zm20-5.714h2.143v3.572h-2.143v-3.572zm3.571 0h2.143v3.572h-2.143v-3.572zm0 5.714h2.143v3.572h-2.143V23.57zm-3.571 0h2.143v3.572h-2.143V23.57z" fill="#805a26"/><path d="M0 11.429h30v4.285H0V11.43z" fill="#00796b"/><path d="M15 6.071l-5 5v18.215h10V11.07l-5-5z" fill="#ffb74d"/><path d="M15 12.857A3.571 3.571 0 1015 20a3.571 3.571 0 000-7.143z" fill="#fafafa"/><path d="M16.429 17.143H15c-.429 0-.714-.286-.714-.714V15c0-.429.285-.714.714-.714s.714.285.714.714v.714h.715c.428 0 .714.286.714.715 0 .428-.286.714-.714.714z" fill="#795548"/><path d="M15 5l-6.429 6.429V13.5L15 7.071l6.429 6.429v-2.071L15 5z" fill="#4db6ac"/><path d="M15 22.143c-1.214 0-2.143.928-2.143 2.143v5h4.286v-5c0-1.215-.929-2.143-2.143-2.143z" fill="#805a26"/></svg>
